#define ukraine_width 200
#define ukraine_height 200
static unsigned char ukraine_bits[] = {
   0x00, 0x00, 0x00, 0x00, 0x00, 0x00, 0x00, 0x00, 0x00, 0x00, 0x00, 0x00,
   0x00, 0x00, 0x00, 0x00, 0x00, 0x00, 0x00, 0x00, 0x00, 0x00, 0x00, 0x00,
   0x00, 0x00, 0x00, 0x00, 0x00, 0x00, 0x00, 0x00, 0x00, 0x00, 0x00, 0x00,
   0x00, 0x00, 0x00, 0x00, 0x00, 0x00, 0x00, 0x00, 0x00, 0x00, 0x00, 0x00,
   0x00, 0x00, 0x00, 0x00, 0x00, 0x00, 0x00, 0x00, 0x00, 0x00, 0x00, 0x00,
   0x00, 0x00, 0x00, 0x00, 0x00, 0x00, 0x00, 0x00, 0x00, 0x00, 0x00, 0x00,
   0x00, 0x00, 0x00, 0x00, 0x00, 0x00, 0x00, 0x00, 0x00, 0x00, 0x00, 0x00,
   0x00, 0x00, 0x00, 0x00, 0x00, 0x00, 0x00, 0x00, 0x00, 0x00, 0x00, 0x00,
   0x00, 0x00, 0x00, 0x00, 0x00, 0x00, 0x00, 0x00, 0x00, 0x00, 0x00, 0x00,
   0x00, 0x00, 0x00, 0x00, 0x00, 0x00, 0x00, 0x00, 0x00, 0x00, 0x00, 0x00,
   0x00, 0x00, 0x00, 0x00, 0x00, 0x00, 0x00, 0x00, 0x00, 0x00, 0x00, 0x00,
   0x00, 0x00, 0x00, 0x00, 0x00, 0x00, 0x00, 0x00, 0x00, 0x00, 0x00, 0x00,
   0x00, 0x00, 0x00, 0x00, 0x00, 0x00, 0x00, 0x00, 0x00, 0x00, 0x00, 0x00,
   0x00, 0x00, 0x00, 0x00, 0x00, 0x00, 0x00, 0x00, 0x00, 0x00, 0x00, 0x00,
   0x00, 0x00, 0x00, 0x00, 0x00, 0x00, 0x00, 0x00, 0x00, 0x00, 0x00, 0x00,
   0x00, 0x00, 0x00, 0x00, 0x00, 0x00, 0x00, 0x00, 0x00, 0x00, 0x00, 0x00,
   0x00, 0x00, 0x00, 0x00, 0x00, 0x00, 0x00, 0x00, 0x00, 0x00, 0x00, 0x00,
   0x00, 0x00, 0x00, 0x00, 0x00, 0x00, 0x00, 0x00, 0x00, 0x00, 0x00, 0x00,
   0x00, 0x00, 0x00, 0x00, 0x00, 0x00, 0x00, 0x00, 0x00, 0x00, 0x00, 0x00,
   0x00, 0x00, 0x00, 0x00, 0x00, 0x00, 0x00, 0x00, 0x00, 0x00, 0x00, 0x00,
   0x00, 0x00, 0x00, 0x00, 0x00, 0x00, 0x00, 0x00, 0x00, 0x00, 0x00, 0x00,
   0x00, 0x00, 0x00, 0x00, 0x00, 0x00, 0x00, 0x00, 0x00, 0x00, 0x00, 0x00,
   0x00, 0x00, 0x00, 0x00, 0x00, 0x00, 0x00, 0x00, 0x00, 0x00, 0x00, 0x00,
   0x00, 0x00, 0x00, 0x00, 0x00, 0x00, 0x00, 0x00, 0x00, 0x00, 0x00, 0x00,
   0x00, 0x00, 0x00, 0x00, 0x00, 0x00, 0x00, 0x00, 0x00, 0x00, 0x00, 0x00,
   0x00, 0x00, 0x00, 0x00, 0x00, 0x00, 0x00, 0x00, 0x00, 0x00, 0x00, 0x00,
   0x00, 0x00, 0x00, 0x00, 0x00, 0x00, 0x00, 0x00, 0x00, 0x00, 0x00, 0x00,
   0x00, 0x00, 0x00, 0x00, 0x00, 0x00, 0x00, 0x00, 0x00, 0x00, 0x00, 0x00,
   0x00, 0x00, 0x00, 0x00, 0x00, 0x00, 0x00, 0x00, 0x00, 0x00, 0x00, 0x00,
   0x00, 0x00, 0x00, 0x00, 0x00, 0x00, 0x00, 0x00, 0x00, 0x00, 0x00, 0x00,
   0x00, 0x00, 0x00, 0x00, 0x00, 0x00, 0x00, 0x00, 0x00, 0x00, 0x00, 0x00,
   0x00, 0x00, 0x00, 0x00, 0x00, 0x00, 0x00, 0x00, 0x00, 0x00, 0x00, 0x00,
   0x00, 0x00, 0x00, 0x00, 0x00, 0x00, 0x00, 0x00, 0x00, 0x00, 0x00, 0x00,
   0x00, 0x00, 0x00, 0x00, 0x00, 0x00, 0x00, 0x00, 0x00, 0x00, 0x00, 0x00,
   0x00, 0x00, 0x00, 0x00, 0x00, 0x00, 0x00, 0x00, 0x00, 0x00, 0x00, 0x00,
   0x00, 0x00, 0x00, 0x00, 0x00, 0x00, 0x00, 0x00, 0x00, 0x00, 0x00, 0x00,
   0x00, 0x00, 0x00, 0x00, 0x00, 0x00, 0x00, 0x00, 0x00, 0x00, 0x00, 0x00,
   0x00, 0x00, 0x00, 0x00, 0x00, 0x00, 0x00, 0x00, 0x00, 0x00, 0x00, 0x00,
   0x00, 0x00, 0x00, 0x00, 0x00, 0x00, 0x00, 0x00, 0x00, 0x00, 0x00, 0x00,
   0x00, 0x00, 0x00, 0x00, 0x00, 0x00, 0x00, 0x00, 0x00, 0x00, 0x00, 0x00,
   0x00, 0x00, 0x00, 0x00, 0x00, 0x00, 0x00, 0x00, 0x00, 0x00, 0x00, 0x00,
   0x00, 0x00, 0x00, 0x00, 0x00, 0x00, 0x00, 0x00, 0x00, 0x00, 0x00, 0x00,
   0x00, 0x00, 0x00, 0x00, 0x00, 0x00, 0x00, 0x00, 0x00, 0x00, 0x00, 0x00,
   0x00, 0x00, 0x00, 0x00, 0x00, 0x00, 0x00, 0x00, 0x00, 0x00, 0x00, 0x00,
   0x00, 0x00, 0x00, 0x00, 0x00, 0x00, 0x00, 0x00, 0x00, 0x00, 0x00, 0x00,
   0x00, 0x00, 0x00, 0x00, 0x00, 0x00, 0x00, 0x00, 0x00, 0x00, 0x00, 0x00,
   0x00, 0x00, 0x00, 0x00, 0x00, 0x00, 0x00, 0x00, 0x00, 0x00, 0x00, 0x00,
   0x00, 0x00, 0x00, 0x00, 0x00, 0x00, 0x00, 0x00, 0x00, 0x00, 0x00, 0x00,
   0x00, 0x00, 0x00, 0x00, 0x00, 0x00, 0x00, 0x00, 0x00, 0x00, 0x00, 0x00,
   0x00, 0x00, 0x00, 0x00, 0x00, 0x00, 0x00, 0x00, 0x00, 0x00, 0x00, 0x00,
   0x00, 0x00, 0x00, 0x00, 0x00, 0x00, 0x00, 0x00, 0x00, 0x00, 0x00, 0x00,
   0x00, 0x00, 0x00, 0x00, 0x00, 0x00, 0x00, 0x00, 0x00, 0x00, 0x00, 0x00,
   0x00, 0x00, 0x00, 0x00, 0x00, 0x00, 0x00, 0x00, 0x00, 0x00, 0x00, 0x00,
   0x00, 0x00, 0x00, 0x00, 0x00, 0x00, 0x00, 0x00, 0x00, 0x00, 0x00, 0x00,
   0x00, 0x00, 0x00, 0x00, 0x00, 0x00, 0x00, 0x00, 0x00, 0x00, 0x00, 0x00,
   0x00, 0x00, 0x00, 0x00, 0x00, 0x00, 0x00, 0x00, 0x00, 0x00, 0x00, 0x00,
   0x00, 0x00, 0x00, 0x00, 0x00, 0x00, 0x00, 0x00, 0x00, 0x00, 0x00, 0x00,
   0x00, 0x00, 0x00, 0x00, 0x00, 0x00, 0x00, 0x00, 0x00, 0x00, 0x00, 0x00,
   0x00, 0x00, 0x00, 0x00, 0x00, 0x00, 0x00, 0x00, 0x00, 0x00, 0x00, 0x00,
   0x00, 0x00, 0x00, 0x00, 0x00, 0x00, 0x00, 0x00, 0x00, 0x00, 0x00, 0x00,
   0x00, 0x00, 0x00, 0x00, 0x00, 0x00, 0x00, 0x00, 0x00, 0x00, 0x00, 0x00,
   0x00, 0x00, 0x00, 0x00, 0x00, 0x00, 0x00, 0x00, 0x00, 0x00, 0x00, 0x00,
   0x00, 0x00, 0x00, 0x00, 0x00, 0x00, 0x00, 0x00, 0x00, 0x00, 0x00, 0x00,
   0x00, 0x00, 0x00, 0x00, 0x00, 0x00, 0x00, 0x00, 0x00, 0x00, 0x00, 0x00,
   0x00, 0x00, 0x00, 0x00, 0x00, 0x00, 0x00, 0x00, 0x00, 0x00, 0x00, 0x00,
   0x00, 0x00, 0x00, 0x00, 0x00, 0x00, 0x00, 0x00, 0x00, 0x00, 0x00, 0x00,
   0x00, 0x00, 0x00, 0x00, 0x00, 0x00, 0x00, 0x00, 0x00, 0x00, 0x00, 0x00,
   0x00, 0x00, 0x00, 0x00, 0x00, 0x00, 0x00, 0x00, 0x00, 0x00, 0x00, 0x00,
   0x00, 0x00, 0x00, 0x00, 0x00, 0x00, 0x00, 0x00, 0x00, 0x00, 0x00, 0x00,
   0x00, 0x00, 0x00, 0x00, 0x00, 0x00, 0x00, 0x00, 0x00, 0x00, 0x00, 0x00,
   0x00, 0x00, 0x00, 0x00, 0x00, 0x00, 0x00, 0x00, 0x00, 0x00, 0x00, 0x00,
   0x00, 0x00, 0x00, 0x00, 0x00, 0x00, 0x00, 0x00, 0x00, 0x00, 0x00, 0x00,
   0x00, 0x00, 0x00, 0x00, 0x00, 0x00, 0x00, 0x00, 0x00, 0x00, 0x00, 0x00,
   0x00, 0x00, 0x00, 0x00, 0x00, 0x00, 0x00, 0x00, 0x00, 0x00, 0x00, 0x00,
   0x00, 0x00, 0x00, 0x00, 0x00, 0x00, 0x00, 0x00, 0x00, 0x00, 0x00, 0x00,
   0x00, 0x00, 0x00, 0x00, 0x00, 0x00, 0x00, 0x00, 0x00, 0x00, 0x00, 0x00,
   0x00, 0x00, 0x00, 0x00, 0x00, 0x00, 0x00, 0x00, 0x00, 0x00, 0x00, 0x00,
   0x00, 0x00, 0x00, 0x00, 0x00, 0x00, 0x00, 0x00, 0x00, 0x00, 0x00, 0x00,
   0x00, 0x00, 0x00, 0x00, 0x00, 0x00, 0x00, 0x00, 0x00, 0x00, 0x00, 0x00,
   0x00, 0x00, 0x00, 0x00, 0x00, 0x00, 0x00, 0x00, 0x00, 0x00, 0x00, 0x00,
   0x00, 0x00, 0x00, 0x00, 0x00, 0x00, 0x00, 0x00, 0x00, 0x00, 0x00, 0x00,
   0x00, 0x00, 0x00, 0x00, 0x00, 0x00, 0x00, 0x00, 0x00, 0x00, 0x00, 0x00,
   0x00, 0x00, 0x00, 0x00, 0x00, 0x00, 0x00, 0x00, 0x00, 0x00, 0x00, 0x00,
   0x00, 0x00, 0x00, 0x00, 0x00, 0x00, 0x00, 0x00, 0x00, 0x00, 0x00, 0x00,
   0x00, 0x00, 0x00, 0x00, 0x00, 0x00, 0x00, 0x00, 0x00, 0x00, 0x00, 0x00,
   0x00, 0x00, 0x00, 0x00, 0x00, 0x00, 0x00, 0x00, 0x00, 0x00, 0x00, 0x00,
   0x00, 0x00, 0x00, 0x00, 0x00, 0x00, 0x00, 0x00, 0x00, 0x00, 0x00, 0x00,
   0x00, 0x00, 0x00, 0x00, 0x00, 0x00, 0x00, 0x00, 0x00, 0x00, 0x00, 0x00,
   0x00, 0x00, 0x00, 0x00, 0x00, 0x00, 0x00, 0x00, 0x00, 0x00, 0x00, 0x00,
   0x00, 0x00, 0x00, 0x00, 0x00, 0x00, 0x00, 0x00, 0x00, 0x00, 0x00, 0x00,
   0x00, 0x00, 0x00, 0x00, 0x00, 0x00, 0x00, 0x00, 0x00, 0x00, 0x00, 0x00,
   0x00, 0x00, 0x00, 0x00, 0x00, 0x00, 0x00, 0x00, 0x00, 0x00, 0x00, 0x00,
   0x00, 0x00, 0x00, 0x00, 0x00, 0x00, 0x00, 0x00, 0x00, 0x00, 0x00, 0x00,
   0x00, 0x00, 0x00, 0x00, 0x00, 0x00, 0x00, 0x00, 0x00, 0x00, 0x00, 0x00,
   0x00, 0x00, 0x00, 0x00, 0x00, 0x00, 0x00, 0x00, 0x00, 0x00, 0x00, 0x00,
   0x00, 0x00, 0x00, 0x00, 0x00, 0x00, 0x00, 0x00, 0x00, 0x00, 0x00, 0x00,
   0x00, 0x00, 0x00, 0x00, 0x00, 0x00, 0x00, 0x00, 0x00, 0x00, 0x00, 0x00,
   0x00, 0x00, 0x00, 0x00, 0x00, 0x00, 0x00, 0x00, 0x00, 0x00, 0x00, 0x00,
   0x00, 0x00, 0x00, 0x00, 0x00, 0x00, 0x00, 0x00, 0x00, 0x00, 0x00, 0x00,
   0x00, 0x00, 0x00, 0x00, 0x00, 0x00, 0x00, 0x00, 0x00, 0x00, 0x00, 0x00,
   0x00, 0x00, 0x00, 0x00, 0x00, 0x00, 0x00, 0x00, 0x00, 0x00, 0x00, 0x00,
   0x00, 0x00, 0x00, 0x00, 0x00, 0x00, 0x00, 0x00, 0x00, 0x00, 0x00, 0x00,
   0x00, 0x00, 0x00, 0x00, 0x00, 0x00, 0x00, 0x00, 0x00, 0x00, 0x00, 0x00,
   0x00, 0x00, 0x00, 0x00, 0x00, 0x00, 0x00, 0x00, 0x00, 0x00, 0x00, 0x00,
   0x00, 0x00, 0x00, 0x00, 0x00, 0x00, 0x00, 0x00, 0x00, 0x00, 0x00, 0x00,
   0x00, 0x00, 0x00, 0x00, 0x00, 0x00, 0x00, 0x00, 0x00, 0x00, 0x00, 0x00,
   0x00, 0x00, 0x00, 0x00, 0x00, 0x00, 0x00, 0x00, 0x00, 0x00, 0x00, 0x00,
   0x00, 0x00, 0x00, 0x00, 0x00, 0x00, 0x00, 0x00, 0x00, 0x00, 0x00, 0x00,
   0x00, 0x00, 0x00, 0x00, 0x00, 0x00, 0x00, 0x00, 0x00, 0x00, 0x00, 0x00,
   0x00, 0x00, 0x00, 0x00, 0x00, 0x00, 0x00, 0x00, 0x00, 0x00, 0x00, 0x00,
   0x00, 0x00, 0x00, 0x00, 0x00, 0x00, 0x00, 0x00, 0x00, 0x00, 0x00, 0x00,
   0x00, 0x00, 0x00, 0x00, 0x00, 0x00, 0x00, 0x00, 0x00, 0x00, 0x00, 0x00,
   0x00, 0x00, 0x00, 0x00, 0x00, 0x00, 0x00, 0x00, 0x00, 0x00, 0x00, 0x00,
   0x00, 0x00, 0x00, 0x00, 0x00, 0x00, 0x00, 0x00, 0x00, 0x00, 0x00, 0x00,
   0x00, 0x00, 0x00, 0x00, 0x00, 0x00, 0x00, 0x00, 0x00, 0x00, 0x00, 0x00,
   0x00, 0x00, 0x00, 0x00, 0x00, 0x00, 0x00, 0x00, 0x00, 0x00, 0x00, 0x00,
   0x00, 0x00, 0x00, 0x00, 0x00, 0x00, 0x00, 0x00, 0x00, 0x00, 0x00, 0x00,
   0x00, 0x00, 0x00, 0x00, 0x00, 0x00, 0x00, 0x00, 0x00, 0x00, 0x00, 0x00,
   0x00, 0x00, 0x00, 0x00, 0x00, 0x00, 0x00, 0x00, 0x00, 0x00, 0x00, 0x00,
   0x00, 0x00, 0x00, 0x00, 0x00, 0x00, 0x00, 0x00, 0x00, 0x00, 0x00, 0x00,
   0x00, 0x00, 0x00, 0x00, 0x00, 0x00, 0x00, 0x00, 0x00, 0x00, 0x00, 0x00,
   0x00, 0x00, 0x00, 0x00, 0x00, 0x00, 0x00, 0x00, 0x00, 0x00, 0x00, 0x00,
   0x00, 0x00, 0x00, 0x00, 0x00, 0x00, 0x00, 0x00, 0x00, 0x00, 0x00, 0x00,
   0x00, 0x00, 0x00, 0x00, 0x00, 0x00, 0x00, 0x00, 0x00, 0x00, 0x00, 0x00,
   0x00, 0x00, 0x00, 0x00, 0x00, 0x00, 0x00, 0x00, 0x00, 0x00, 0x00, 0x00,
   0x1d, 0xaa, 0x1a, 0x55, 0xa1, 0xaa, 0x50, 0x55, 0xa8, 0x0a, 0x55, 0x87,
   0xaa, 0x41, 0x55, 0xa8, 0x2a, 0x54, 0x85, 0xaa, 0x42, 0x55, 0xa1, 0x2a,
   0x54, 0x20, 0x00, 0x1c, 0x00, 0x00, 0x00, 0x00, 0x00, 0x00, 0x00, 0x00,
   0x02, 0x00, 0x01, 0x00, 0x00, 0x04, 0x00, 0x80, 0x00, 0x00, 0x00, 0x00,
   0x01, 0x00, 0x40, 0x00, 0x03, 0x00, 0x00, 0x00, 0x00, 0x00, 0x00, 0x00,
   0x00, 0x04, 0x00, 0x02, 0x00, 0x40, 0x01, 0x00, 0x00, 0x01, 0x00, 0x00,
   0x00, 0x01, 0x00, 0x40, 0x80, 0x00, 0x00, 0x00, 0x00, 0x00, 0x00, 0x00,
   0x00, 0x00, 0x04, 0x00, 0x02, 0x00, 0x80, 0x00, 0x00, 0x00, 0x00, 0x00,
   0x00, 0x80, 0x00, 0x00, 0x00, 0x40, 0x00, 0x00, 0x00, 0x00, 0x00, 0x00,
   0x02, 0x00, 0x00, 0x08, 0x00, 0x01, 0x00, 0x20, 0x00, 0x00, 0x00, 0x02,
   0x00, 0x00, 0x80, 0x00, 0x00, 0x00, 0x45, 0x00, 0x00, 0x00, 0x00, 0x00,
   0x00, 0x04, 0x00, 0x00, 0x18, 0x00, 0x03, 0x0a, 0x54, 0x01, 0x00, 0x00,
   0x04, 0x00, 0x00, 0x40, 0x01, 0x00, 0x00, 0x28, 0x00, 0x00, 0x00, 0x00,
   0x00, 0x00, 0x00, 0x00, 0x00, 0x10, 0x00, 0x02, 0x55, 0xb9, 0x03, 0x00,
   0x00, 0x00, 0x00, 0x00, 0xc0, 0x02, 0x00, 0x00, 0xa0, 0x00, 0x00, 0x00,
   0x00, 0x00, 0x00, 0x00, 0x00, 0x00, 0x20, 0x00, 0x04, 0x11, 0x09, 0x0e,
   0x00, 0x00, 0x00, 0x00, 0x00, 0x00, 0x02, 0x00, 0x00, 0xc0, 0x01, 0x00,
   0x00, 0x00, 0x80, 0x02, 0x00, 0x00, 0x00, 0x20, 0x40, 0x04, 0x00, 0x10,
   0x18, 0x00, 0x00, 0x00, 0x00, 0x00, 0x00, 0x04, 0x00, 0x00, 0x00, 0x02,
   0x00, 0x00, 0xa0, 0xaa, 0x56, 0xd0, 0x2a, 0x00, 0x40, 0xbc, 0x8e, 0x03,
   0x30, 0x00, 0x00, 0x00, 0x00, 0x00, 0x00, 0x00, 0x00, 0x00, 0x00, 0x00,
   0x04, 0x00, 0x00, 0xa0, 0x00, 0xc0, 0x2a, 0x40, 0x00, 0x80, 0x32, 0x50,
   0x01, 0x04, 0x08, 0x00, 0x00, 0x00, 0x00, 0x00, 0x00, 0x08, 0x00, 0x00,
   0x00, 0x04, 0x00, 0x08, 0x10, 0x00, 0x00, 0x00, 0x00, 0x01, 0x80, 0x13,
   0x60, 0x00, 0x0c, 0x10, 0x00, 0x00, 0x00, 0x00, 0x00, 0x00, 0x04, 0x00,
   0x00, 0x00, 0x00, 0xa0, 0x51, 0x1f, 0x00, 0x00, 0x00, 0x00, 0x02, 0x00,
   0x03, 0x00, 0x00, 0x02, 0x20, 0x00, 0x00, 0x00, 0x00, 0x00, 0x00, 0x04,
   0x00, 0x00, 0x00, 0x06, 0x54, 0x15, 0xb8, 0x01, 0x00, 0x00, 0x00, 0x00,
   0xc0, 0x01, 0x00, 0x00, 0x04, 0xe0, 0x00, 0x00, 0x00, 0x00, 0x00, 0x00,
   0x00, 0x00, 0x00, 0x00, 0x04, 0x24, 0x30, 0x00, 0x55, 0x01, 0x00, 0x00,
   0x04, 0xc0, 0x00, 0x00, 0x00, 0x00, 0x40, 0x00, 0x00, 0x00, 0x00, 0x00,
   0x00, 0x06, 0x00, 0x00, 0x00, 0x07, 0x42, 0x00, 0x00, 0xa8, 0x02, 0x00,
   0x00, 0x08, 0x40, 0x00, 0x00, 0x00, 0x00, 0xe0, 0xa0, 0x00, 0x00, 0x00,
   0x00, 0x00, 0x04, 0x00, 0x00, 0x00, 0x8a, 0x02, 0x00, 0x01, 0x00, 0x00,
   0x10, 0x20, 0x08, 0x30, 0x00, 0x00, 0x00, 0x00, 0xa0, 0x58, 0x55, 0x0d,
   0x00, 0x00, 0x00, 0x02, 0x00, 0x00, 0x00, 0x56, 0x00, 0x80, 0x00, 0x00,
   0xbe, 0xaa, 0x48, 0x10, 0x20, 0x00, 0x00, 0x40, 0x00, 0x18, 0x00, 0xa6,
   0x20, 0x00, 0x00, 0x00, 0x02, 0x00, 0x00, 0x00, 0x56, 0x01, 0x00, 0x00,
   0x00, 0xae, 0x5e, 0xf5, 0x20, 0xe0, 0x01, 0x00, 0x80, 0x02, 0x70, 0x00,
   0x00, 0x40, 0x00, 0x00, 0x00, 0x00, 0x00, 0x00, 0x00, 0x2e, 0x01, 0x40,
   0x01, 0x00, 0x40, 0x21, 0xc3, 0x78, 0x05, 0x01, 0x04, 0x08, 0x04, 0x00,
   0x08, 0x00, 0x80, 0x00, 0x00, 0x00, 0x06, 0x00, 0x00, 0x00, 0x2c, 0x00,
   0x80, 0x00, 0x00, 0xc0, 0x00, 0x02, 0x1d, 0x25, 0x30, 0x02, 0x30, 0x21,
   0x20, 0x00, 0x00, 0x00, 0x02, 0x00, 0x00, 0x02, 0x00, 0x00, 0x00, 0x1c,
   0x00, 0x00, 0x02, 0x00, 0x00, 0x00, 0x02, 0x05, 0x08, 0x20, 0x04, 0x10,
   0xae, 0x40, 0x0d, 0x00, 0x00, 0x15, 0x00, 0x00, 0x04, 0x00, 0x00, 0x00,
   0x0c, 0x00, 0x00, 0x0e, 0x00, 0x08, 0x00, 0x00, 0x00, 0x57, 0x10, 0x30,
   0x00, 0x41, 0x21, 0x0a, 0x00, 0x00, 0x20, 0x00, 0x00, 0x04, 0x00, 0x00,
   0x00, 0x08, 0x00, 0x00, 0x04, 0x00, 0x00, 0x00, 0x80, 0x00, 0x78, 0x00,
   0x00, 0x00, 0x01, 0xe8, 0x43, 0x00, 0x00, 0x40, 0x00, 0x00, 0x08, 0x00,
   0x00, 0x00, 0x00, 0x00, 0x00, 0x08, 0x00, 0x04, 0x00, 0x00, 0x01, 0x24,
   0x00, 0x00, 0x00, 0x00, 0x52, 0xdf, 0x00, 0x00, 0x40, 0x00, 0x00, 0x00,
   0x00, 0x00, 0x00, 0x30, 0x00, 0x00, 0x00, 0x00, 0x08, 0x00, 0x00, 0x00,
   0x18, 0x01, 0x00, 0x80, 0x00, 0x00, 0xcc, 0x00, 0x00, 0x00, 0x00, 0x00,
   0x10, 0x00, 0x00, 0x00, 0x20, 0x00, 0x00, 0x20, 0x00, 0x02, 0x00, 0x00,
   0x06, 0x10, 0x03, 0x00, 0x00, 0x01, 0x00, 0x00, 0x05, 0x00, 0x00, 0x00,
   0x00, 0x00, 0x00, 0x00, 0x00, 0x00, 0x00, 0x00, 0x00, 0x00, 0x05, 0x00,
   0x00, 0x01, 0x24, 0x00, 0x00, 0x00, 0x00, 0x00, 0x80, 0x07, 0x00, 0x00,
   0x00, 0x00, 0x28, 0x00, 0x00, 0x00, 0x40, 0x00, 0x00, 0x00, 0x00, 0x01,
   0x00, 0x00, 0x01, 0x28, 0x00, 0x00, 0x00, 0x03, 0x00, 0x00, 0x02, 0x00,
   0x04, 0x00, 0x00, 0x50, 0x03, 0x00, 0x00, 0x80, 0x00, 0x00, 0x10, 0x00,
   0x02, 0x00, 0x00, 0x00, 0x18, 0x01, 0x00, 0x00, 0x00, 0x00, 0x00, 0x04,
   0x00, 0x02, 0x00, 0x00, 0x00, 0x02, 0x00, 0x00, 0x60, 0x00, 0x00, 0x00,
   0x00, 0x00, 0x00, 0x00, 0x00, 0x90, 0x01, 0x00, 0x00, 0x04, 0x00, 0x00,
   0x06, 0x00, 0x02, 0x00, 0x00, 0x00, 0x04, 0x00, 0x00, 0x40, 0x00, 0x00,
   0x00, 0x00, 0x00, 0x00, 0x00, 0x0c, 0xa8, 0x1a, 0x00, 0x00, 0x00, 0x00,
   0x00, 0x08, 0x00, 0x01, 0x00, 0x00, 0x00, 0x04, 0x00, 0x00, 0x00, 0x00,
   0x00, 0x03, 0x00, 0x02, 0x00, 0x00, 0x08, 0x00, 0x18, 0x00, 0x00, 0x00,
   0x00, 0x00, 0x0c, 0x00, 0x00, 0x00, 0x00, 0x00, 0x02, 0x01, 0x00, 0x80,
   0x00, 0x50, 0x01, 0x00, 0x00, 0x00, 0x00, 0x06, 0x50, 0x00, 0x0c, 0x00,
   0x00, 0x00, 0x00, 0x04, 0x80, 0x00, 0x00, 0x00, 0x00, 0x0e, 0x01, 0x00,
   0x00, 0x14, 0x2c, 0x00, 0x60, 0x01, 0x00, 0x00, 0x04, 0xa0, 0x20, 0x28,
   0x00, 0x0c, 0x04, 0x00, 0x00, 0x80, 0x00, 0x00, 0x00, 0x00, 0x04, 0x0a,
   0x00, 0x40, 0x05, 0x08, 0x00, 0x80, 0x05, 0x00, 0x00, 0x04, 0x38, 0x50,
   0x11, 0x00, 0x02, 0x10, 0x00, 0x08, 0x00, 0x00, 0x00, 0x00, 0x00, 0x08,
   0x00, 0x00, 0x80, 0x03, 0x06, 0x00, 0x00, 0x04, 0x00, 0x00, 0x02, 0x06,
   0x01, 0x20, 0x43, 0x01, 0x1b, 0x00, 0x54, 0x87, 0x80, 0x01, 0x00, 0x00,
   0x20, 0x10, 0x00, 0x18, 0xc2, 0x05, 0x00, 0x00, 0x04, 0x00, 0x00, 0x00,
   0x44, 0x00, 0x80, 0xc8, 0x00, 0xa0, 0x00, 0x30, 0x09, 0xc2, 0x01, 0x00,
   0x00, 0x10, 0x20, 0x00, 0x0c, 0x23, 0x0a, 0x00, 0x04, 0x08, 0x00, 0x00,
   0x10, 0xa0, 0x00, 0x40, 0x01, 0x00, 0x40, 0x00, 0x60, 0x54, 0x17, 0x03,
   0x00, 0x00, 0x10, 0x00, 0x00, 0x07, 0x04, 0x02, 0x94, 0x00, 0x08, 0x00,
   0x00, 0x10, 0xc0, 0x00, 0x20, 0x00, 0x00, 0x00, 0x80, 0x06, 0xf0, 0x00,
   0x06, 0x00, 0x00, 0x08, 0x40, 0x80, 0x02, 0x02, 0x80, 0x89, 0x00, 0x40,
   0x00, 0x00, 0x10, 0x40, 0x00, 0x90, 0x00, 0x00, 0x00, 0x02, 0x00, 0x80,
   0x01, 0x06, 0x00, 0x00, 0x10, 0x80, 0x00, 0x01, 0x04, 0x80, 0x42, 0x00,
   0x00, 0x00, 0x00, 0x10, 0x00, 0x00, 0x70, 0x01, 0x00, 0x00, 0x54, 0x00,
   0x00, 0x00, 0x04, 0x00, 0x00, 0x10, 0x00, 0xc0, 0x00, 0x0a, 0x10, 0x40,
   0x00, 0x60, 0x00, 0x00, 0x10, 0x00, 0x01, 0x00, 0x00, 0x00, 0x00, 0x10,
   0x00, 0x00, 0x00, 0x28, 0x01, 0x00, 0xa8, 0x00, 0x61, 0x00, 0x10, 0x10,
   0x20, 0x00, 0x00, 0x00, 0x00, 0x08, 0x00, 0xe0, 0x28, 0x00, 0x00, 0x00,
   0x20, 0x00, 0x00, 0x02, 0x00, 0x47, 0x00, 0x00, 0x00, 0x02, 0x00, 0x10,
   0x00, 0x60, 0x00, 0x30, 0x00, 0x00, 0x10, 0x00, 0xa8, 0x05, 0x00, 0x00,
   0x00, 0x10, 0x00, 0x00, 0x0c, 0xc0, 0x28, 0x00, 0x00, 0x00, 0x06, 0x00,
   0x00, 0x30, 0x40, 0x00, 0x00, 0x00, 0x04, 0x10, 0x00, 0x10, 0x07, 0x00,
   0x00, 0x00, 0x00, 0x00, 0x00, 0x05, 0x80, 0x61, 0x05, 0x00, 0x10, 0x04,
   0x00, 0x00, 0x21, 0x00, 0x00, 0x40, 0x50, 0x11, 0x08, 0x00, 0xb0, 0x04,
   0x06, 0x00, 0x00, 0x80, 0x01, 0x80, 0x08, 0x00, 0x40, 0x0b, 0x00, 0xf4,
   0x0a, 0x00, 0x00, 0x04, 0x00, 0x00, 0xa0, 0x00, 0x08, 0x00, 0x00, 0x80,
   0x00, 0x06, 0x00, 0x00, 0x00, 0x00, 0x80, 0x06, 0x60, 0x00, 0xfa, 0x00,
   0x08, 0x02, 0x00, 0x00, 0x03, 0x20, 0x00, 0xc0, 0x01, 0x00, 0x00, 0x00,
   0x00, 0x01, 0x10, 0x00, 0x00, 0x80, 0x02, 0x00, 0x00, 0x00, 0x00, 0x80,
   0x00, 0x08, 0x01, 0x00, 0x00, 0x02, 0x40, 0x00, 0x00, 0x00, 0x88, 0x00,
   0x00, 0x18, 0x00, 0x08, 0x00, 0x00, 0x00, 0x03, 0x10, 0x00, 0x20, 0x00,
   0x00, 0x00, 0x04, 0x81, 0x00, 0x08, 0x00, 0x00, 0x02, 0x40, 0x01, 0xa0,
   0x02, 0x00, 0x10, 0x2a, 0x00, 0x00, 0x00, 0x00, 0x08, 0x00, 0x00, 0x40,
   0x00, 0x00, 0x16, 0x88, 0xa1, 0x10, 0x10, 0x00, 0x00, 0x10, 0x80, 0x08,
   0x00, 0x04, 0x00, 0x08, 0x54, 0x00, 0x00, 0x00, 0x00, 0x0a, 0xa0, 0x00,
   0x10, 0x00, 0x00, 0x3a, 0x88, 0x00, 0x98, 0x10, 0x00, 0x40, 0x40, 0xa0,
   0x04, 0x00, 0x08, 0x00, 0x08, 0x10, 0x60, 0x00, 0x00, 0x00, 0x0a, 0x40,
   0x00, 0x00, 0x00, 0x00, 0x00, 0x10, 0x01, 0xc0, 0x80, 0x00, 0x20, 0x80,
   0x52, 0x41, 0x00, 0x02, 0x00, 0x04, 0xa0, 0xd0, 0x00, 0x00, 0x00, 0x00,
   0x00, 0x08, 0x00, 0x00, 0x00, 0x20, 0x21, 0x04, 0x00, 0x44, 0x00, 0x00,
   0x00, 0x04, 0x81, 0x00, 0x0a, 0x09, 0x00, 0x00, 0x54, 0x00, 0x00, 0x20,
   0x01, 0x00, 0x20, 0x10, 0x00, 0x00, 0x40, 0x22, 0x03, 0x00, 0x01, 0x00,
   0x00, 0x00, 0x80, 0x00, 0x00, 0x14, 0x18, 0x00, 0x00, 0x28, 0x00, 0x00,
   0x00, 0x00, 0x00, 0x34, 0x30, 0x00, 0x00, 0x00, 0x42, 0x01, 0x00, 0x08,
   0x00, 0x20, 0x00, 0x80, 0x40, 0x00, 0x20, 0x04, 0x00, 0x00, 0x4c, 0x03,
   0x00, 0x30, 0x00, 0x00, 0x00, 0x0b, 0x00, 0x00, 0x30, 0x1c, 0x05, 0x20,
   0x48, 0x01, 0x00, 0x00, 0x50, 0x01, 0x00, 0x40, 0x00, 0x00, 0x00, 0x50,
   0x09, 0x00, 0x52, 0x01, 0x00, 0x08, 0x81, 0x00, 0x00, 0x10, 0xe8, 0x02,
   0x80, 0xa1, 0x02, 0x20, 0x00, 0x68, 0x30, 0x00, 0x10, 0x00, 0x00, 0x80,
   0xb3, 0x1e, 0x00, 0x01, 0x02, 0x40, 0x60, 0x21, 0x00, 0x00, 0x06, 0x40,
   0x03, 0x04, 0x80, 0x02, 0x60, 0x00, 0x1c, 0x10, 0x00, 0x18, 0x00, 0x00,
   0x00, 0x23, 0x10, 0x00, 0x02, 0x03, 0x00, 0x00, 0xc0, 0x01, 0x00, 0x0a,
   0x00, 0x04, 0x04, 0x80, 0x04, 0x00, 0x00, 0x04, 0x00, 0x02, 0x10, 0x00,
   0x00, 0x0c, 0x00, 0x15, 0x00, 0x00, 0x10, 0x01, 0x80, 0x0a, 0x04, 0x00,
   0x02, 0x00, 0x02, 0x00, 0x00, 0x08, 0x20, 0x00, 0x04, 0x00, 0x02, 0x10,
   0x00, 0x00, 0x40, 0x1c, 0xa8, 0x22, 0x00, 0xa0, 0x02, 0x80, 0x14, 0x00,
   0x00, 0x14, 0x30, 0x20, 0x04, 0x00, 0x18, 0x40, 0x00, 0x00, 0x00, 0x54,
   0x00, 0x00, 0x00, 0x11, 0x00, 0x00, 0x54, 0x00, 0x00, 0x00, 0x10, 0x30,
   0x02, 0x00, 0x20, 0x11, 0x98, 0x00, 0x00, 0x70, 0x00, 0x00, 0x00, 0x00,
   0x78, 0x00, 0x40, 0x65, 0x01, 0x00, 0x40, 0x08, 0x00, 0x00, 0x04, 0x18,
   0x00, 0x40, 0x10, 0x0a, 0x11, 0xa0, 0x06, 0x00, 0x00, 0x00, 0x00, 0x04,
   0x00, 0x00, 0x00, 0x00, 0xa8, 0x00, 0x00, 0x00, 0x2c, 0x00, 0x00, 0x02,
   0x00, 0x00, 0x00, 0x02, 0x00, 0x08, 0x00, 0x00, 0x00, 0x80, 0x44, 0x00,
   0x02, 0x00, 0x00, 0xa0, 0x60, 0x00, 0x00, 0x00, 0x80, 0x50, 0x01, 0x00,
   0x40, 0x00, 0x00, 0x03, 0x10, 0x01, 0x04, 0x00, 0x04, 0x00, 0x00, 0x57,
   0x28, 0x0e, 0x00, 0x00, 0x80, 0x18, 0x00, 0x00, 0x00, 0x20, 0x80, 0x80,
   0x00, 0x40, 0x00, 0x00, 0x01, 0x06, 0x02, 0x04, 0x00, 0x60, 0x00, 0x01,
   0xa0, 0x0a, 0x01, 0x00, 0x80, 0x00, 0x14, 0x00, 0x00, 0x00, 0x10, 0x00,
   0x00, 0x01, 0x00, 0x02, 0x00, 0x00, 0x80, 0x07, 0x00, 0x00, 0x00, 0x30,
   0xf0, 0x60, 0x05, 0xac, 0x00, 0x00, 0x54, 0x08, 0x00, 0x00, 0x00, 0x30,
   0x00, 0x56, 0x01, 0x00, 0x04, 0x00, 0x00, 0x00, 0x04, 0x0e, 0x00, 0x20,
   0x02, 0x00, 0x00, 0xe2, 0x6c, 0x00, 0x00, 0x00, 0x01, 0x00, 0x00, 0x00,
   0x00, 0x00, 0xa0, 0x00, 0x00, 0x00, 0x00, 0x02, 0x00, 0x08, 0x1d, 0x00,
   0x80, 0x02, 0x58, 0x05, 0x78, 0x05, 0x05, 0x00, 0x00, 0x00, 0x00, 0x00,
   0x00, 0x10, 0x00, 0x00, 0x00, 0x00, 0x00, 0x00, 0x04, 0x00, 0x58, 0x09,
   0x00, 0x00, 0x10, 0x10, 0x1b, 0x10, 0x00, 0x0a, 0x00, 0xc0, 0x00, 0x00,
   0x00, 0x00, 0x00, 0x00, 0x00, 0x00, 0x00, 0x00, 0x00, 0x10, 0x00, 0x5c,
   0x38, 0x00, 0x00, 0x04, 0x00, 0x00, 0x2d, 0x00, 0x14, 0x00, 0x80, 0x00,
   0x12, 0x00, 0x00, 0x40, 0x00, 0x80, 0x01, 0x00, 0x04, 0x00, 0x0c, 0x00,
   0x0c, 0xd0, 0x40, 0x00, 0x0a, 0x00, 0xc0, 0x62, 0x00, 0x30, 0xea, 0x28,
   0x50, 0x11, 0x00, 0x00, 0x10, 0x00, 0x00, 0x01, 0x00, 0x02, 0x00, 0x00,
   0x00, 0x08, 0xd0, 0x22, 0x00, 0x08, 0x00, 0x80, 0x40, 0x00, 0xa0, 0x2e,
   0x80, 0x15, 0xa0, 0x02, 0x00, 0x02, 0x00, 0x50, 0x94, 0xc1, 0x03, 0x00,
   0x20, 0x00, 0x04, 0xa0, 0x52, 0x02, 0x21, 0x02, 0x40, 0x80, 0x00, 0x40,
   0x85, 0x01, 0xc0, 0x02, 0x04, 0x80, 0x06, 0x00, 0x38, 0x80, 0x02, 0x00,
   0x00, 0x40, 0x00, 0x04, 0x00, 0xd4, 0x8b, 0x80, 0x00, 0x77, 0x80, 0x01,
   0x00, 0x2f, 0x00, 0x80, 0x00, 0x08, 0x20, 0x00, 0x00, 0xc8, 0x00, 0xc1,
   0x00, 0x00, 0x00, 0x00, 0x00, 0x40, 0x03, 0xf0, 0x15, 0x99, 0x0a, 0x00,
   0x01, 0x00, 0x68, 0x00, 0x04, 0x08, 0x08, 0x10, 0x03, 0x00, 0x00, 0x00,
   0x84, 0x00, 0x00, 0x00, 0x00, 0x00, 0x80, 0x02, 0x00, 0x21, 0x0a, 0x00,
   0x00, 0x03, 0x00, 0x50, 0x00, 0x00, 0x0c, 0x10, 0x00, 0x02, 0x00, 0x50,
   0x00, 0x9a, 0x00, 0x00, 0x80, 0x57, 0x00, 0x60, 0x05, 0x00, 0xe2, 0x0a,
   0x00, 0x00, 0x02, 0x00, 0x90, 0x00, 0x0c, 0x00, 0x00, 0x00, 0x00, 0x00,
   0x80, 0x00, 0x02, 0x00, 0x00, 0x00, 0xc4, 0x02, 0x50, 0x34, 0x00, 0x52,
   0x05, 0x00, 0x00, 0x04, 0x00, 0x80, 0x00, 0x10, 0x00, 0x80, 0x80, 0x01,
   0x00, 0x40, 0x00, 0x00, 0x00, 0x00, 0x40, 0x00, 0x00, 0x0c, 0xa0, 0x00,
   0x04, 0x01, 0x00, 0x00, 0x06, 0x00, 0x50, 0x00, 0x80, 0x00, 0x00, 0x00,
   0x01, 0x00, 0x00, 0x00, 0x00, 0x02, 0x00, 0x78, 0x00, 0x00, 0x06, 0x00,
   0x00, 0x00, 0x00, 0x00, 0x00, 0x0e, 0x00, 0x50, 0x00, 0xa8, 0x01, 0x00,
   0x80, 0x62, 0x80, 0x21, 0x00, 0x00, 0x00, 0x00, 0x1a, 0x00, 0x00, 0x02,
   0x40, 0x00, 0x00, 0x00, 0x00, 0x00, 0x00, 0x00, 0x20, 0x00, 0x00, 0x53,
   0x00, 0x80, 0x4c, 0xa2, 0xaa, 0x00, 0x00, 0x02, 0x00, 0x04, 0x00, 0x00,
   0x01, 0x00, 0x00, 0x00, 0x01, 0x00, 0x00, 0x10, 0x00, 0xe0, 0x00, 0x00,
   0xa2, 0x00, 0x00, 0x1d, 0xaa, 0x50, 0x00, 0x00, 0x08, 0x00, 0x02, 0x00,
   0x00, 0x00, 0x40, 0x00, 0x80, 0x00, 0x00, 0x00, 0x20, 0x00, 0xc0, 0x01,
   0x00, 0x42, 0x00, 0x00, 0x00, 0x56, 0x10, 0x00, 0x00, 0x50, 0x00, 0x02,
   0x00, 0x00, 0x01, 0x40, 0x01, 0x20, 0x00, 0x00, 0x00, 0x30, 0x00, 0xa0,
   0x08, 0x00, 0x80, 0x03, 0x00, 0x00, 0x14, 0x40, 0x00, 0x00, 0x00, 0x00,
   0x00, 0x00, 0x00, 0x00, 0x80, 0x02, 0x00, 0x00, 0x00, 0x00, 0x70, 0x00,
   0x20, 0x0f, 0x00, 0x04, 0x00, 0x00, 0x01, 0xa8, 0x00, 0x00, 0x00, 0x28,
   0x00, 0x07, 0x0a, 0x00, 0x00, 0xc0, 0x04, 0x15, 0x00, 0x00, 0x00, 0x80,
   0x00, 0x40, 0x04, 0x00, 0x08, 0x00, 0x00, 0x03, 0xaa, 0x01, 0x00, 0x00,
   0x08, 0x00, 0xe2, 0x02, 0x54, 0x00, 0x00, 0x90, 0x00, 0x00, 0x00, 0x00,
   0x80, 0x00, 0x40, 0x00, 0x00, 0x20, 0x04, 0x80, 0x02, 0x05, 0x00, 0x00,
   0x00, 0x0e, 0x00, 0x52, 0x05, 0xab, 0x00, 0x00, 0x20, 0x00, 0x00, 0x00,
   0x00, 0x80, 0x01, 0xa0, 0x0e, 0x00, 0x10, 0x1c, 0x40, 0x01, 0x00, 0x00,
   0x00, 0x00, 0x00, 0xc2, 0x55, 0xa9, 0x00, 0x00, 0x00, 0x00, 0x00, 0x00,
   0x00, 0x00, 0x00, 0x02, 0x00, 0x05, 0x00, 0x26, 0x10, 0x40, 0xc0, 0x02,
   0x02, 0x00, 0x00, 0x00, 0x54, 0x80, 0x3a, 0x00, 0x00, 0x00, 0x00, 0x00,
   0x00, 0x00, 0x00, 0x00, 0x06, 0x00, 0x01, 0x00, 0x00, 0x10, 0x00, 0x42,
   0x00, 0x05, 0x00, 0x00, 0x10, 0x80, 0x2a, 0x14, 0x00, 0x00, 0x00, 0x00,
   0x00, 0x15, 0x00, 0x00, 0x00, 0x04, 0x80, 0x0e, 0x00, 0x1c, 0x08, 0x00,
   0x41, 0x00, 0x0a, 0x00, 0x00, 0x80, 0x0a, 0x50, 0x01, 0x00, 0x00, 0x00,
   0x00, 0x40, 0x30, 0x00, 0x00, 0x00, 0x00, 0x00, 0x10, 0x00, 0x18, 0x00,
   0x40, 0x90, 0x00, 0x04, 0x00, 0x00, 0x48, 0x50, 0xa5, 0x00, 0x00, 0x00,
   0x00, 0x00, 0x00, 0x20, 0x00, 0x00, 0x00, 0x08, 0x00, 0x5c, 0x00, 0xc8,
   0x10, 0x81, 0xac, 0x00, 0x04, 0x00, 0x00, 0x54, 0x05, 0x0a, 0x00, 0x00,
   0x00, 0x00, 0x00, 0x20, 0x40, 0x00, 0x00, 0x00, 0x00, 0x00, 0x8a, 0x10,
   0x10, 0x01, 0xc0, 0x04, 0x00, 0x02, 0x00, 0x40, 0x01, 0xaa, 0x14, 0x00,
   0x00, 0x00, 0x00, 0x00, 0x00, 0x40, 0x02, 0x00, 0x00, 0x18, 0x00, 0x50,
   0x50, 0x80, 0x69, 0x50, 0x01, 0x00, 0x0a, 0x83, 0x07, 0xaa, 0x40, 0x15,
   0x00, 0x00, 0x00, 0x00, 0x00, 0x10, 0x80, 0x02, 0x00, 0x00, 0x10, 0x00,
   0x50, 0xb0, 0x28, 0x50, 0x76, 0x00, 0x00, 0x00, 0x81, 0xaa, 0x40, 0x15,
   0x0a, 0x00, 0x00, 0x00, 0x00, 0x00, 0x00, 0x00, 0x00, 0x00, 0x00, 0x10,
   0x40, 0xe0, 0x60, 0x14, 0x15, 0x0c, 0x00, 0x00, 0x00, 0x12, 0x40, 0x15,
   0x00, 0x00, 0x00, 0x00, 0x00, 0x00, 0x80, 0x08, 0x00, 0x00, 0x00, 0x00,
   0x10, 0xa0, 0x62, 0x40, 0x05, 0xa8, 0x03, 0x00, 0x00, 0x28, 0x5c, 0x15,
   0xa8, 0x12, 0x00, 0x00, 0x00, 0x00, 0x00, 0x40, 0x05, 0x00, 0x02, 0x00,
   0x00, 0x10, 0x18, 0xd5, 0x05, 0xa8, 0x42, 0x01, 0x00, 0x00, 0x20, 0x15,
   0xa8, 0x02, 0x14, 0x00, 0x00, 0x00, 0x00, 0x00, 0x50, 0x00, 0x00, 0x00,
   0x00, 0x00, 0x18, 0xd0, 0xae, 0x8b, 0x00, 0x15, 0x00, 0x00, 0x00, 0x00,
   0xaa, 0x02, 0x55, 0xa1, 0x00, 0x00, 0x00, 0x00, 0x00, 0x08, 0x00, 0x00,
   0x04, 0x00, 0x00, 0x18, 0x00, 0x3c, 0x4c, 0x55, 0x28, 0x00, 0x00, 0x00,
   0x80, 0x02, 0x55, 0x80, 0x2a, 0x01, 0x00, 0x00, 0x00, 0x00, 0x08, 0x00,
   0x00, 0x00, 0x00, 0x00, 0x08, 0x08, 0x00, 0x51, 0xa0, 0x4a, 0x00, 0x80,
   0x00, 0x50, 0x55, 0x80, 0x2a, 0x50, 0x07, 0x00, 0x00, 0x00, 0x00, 0x04,
   0x00, 0x00, 0x08, 0x00, 0x00, 0x08, 0x10, 0x00, 0x8a, 0x0a, 0x54, 0x00,
   0x82, 0x50, 0x56, 0xa0, 0x0a, 0x50, 0x05, 0x3a, 0x00, 0x00, 0x00, 0x00,
   0x04, 0x00, 0x00, 0x04, 0x00, 0x00, 0x04, 0x30, 0x00, 0x08, 0x54, 0xa1,
   0x81, 0x44, 0x75, 0xaa, 0x0a, 0x50, 0x05, 0xaa, 0x50, 0x00, 0x00, 0x01,
   0x00, 0x02, 0x00, 0x00, 0x00, 0x00, 0x00, 0x04, 0x08, 0x00, 0x58, 0x01,
   0xaa, 0x50, 0x9d, 0xaa, 0x0e, 0x50, 0x05, 0xaa, 0x40, 0x15, 0x00, 0x00,
   0x05, 0x00, 0x02, 0x00, 0xa0, 0x02, 0x00, 0x00, 0x00, 0x10, 0x00, 0x00,
   0xaa, 0x40, 0xb5, 0x20, 0x5e, 0x54, 0x01, 0xaa, 0x00, 0xd5, 0x08, 0x00,
   0x00, 0xaa, 0x42, 0x01, 0x00, 0x28, 0x04, 0x00, 0x00, 0x04, 0x14, 0x00,
   0x28, 0x40, 0x15, 0xa0, 0x4a, 0xd4, 0x09, 0xaa, 0x40, 0x15, 0xa0, 0x03,
   0x00, 0x00, 0x40, 0x75, 0x00, 0x00, 0x44, 0x04, 0x00, 0x00, 0x04, 0x02,
   0x40, 0x46, 0x15, 0xa8, 0x02, 0x54, 0xd9, 0xaa, 0x40, 0x15, 0xa0, 0x4a,
   0x05, 0x01, 0x00, 0x00, 0x28, 0x00, 0x40, 0x85, 0x02, 0x00, 0x00, 0x08,
   0x02, 0x00, 0x15, 0xa8, 0x02, 0x54, 0x21, 0x80, 0x54, 0x15, 0xa0, 0x0a,
   0xd4, 0x83, 0x00, 0x00, 0x00, 0x00, 0x00, 0x2c, 0x80, 0x01, 0x00, 0x00,
   0x08, 0x01, 0xa0, 0xa8, 0x02, 0x55, 0x81, 0x12, 0x80, 0x27, 0xa8, 0x02,
   0x54, 0x81, 0x02, 0x00, 0x00, 0x00, 0x00, 0x00, 0x02, 0x00, 0x01, 0x00,
   0x00, 0xc0, 0x00, 0xec, 0x02, 0x55, 0x80, 0x2a, 0x04, 0x00, 0xa8, 0x02,
   0x54, 0x81, 0x0a, 0x05, 0x00, 0x00, 0x00, 0x00, 0x00, 0x00, 0x00, 0x00,
   0x00, 0x00, 0x8c, 0x80, 0x44, 0x55, 0x80, 0x2a, 0x50, 0x01, 0x00, 0x50,
   0x55, 0x81, 0x2a, 0x04, 0x00, 0x00, 0x00, 0x00, 0x00, 0x00, 0x01, 0x00,
   0x00, 0x00, 0x00, 0x88, 0xc8, 0x54, 0xa0, 0x0a, 0x50, 0x05, 0x00, 0x00,
   0x60, 0x80, 0x2a, 0x50, 0x05, 0x00, 0x00, 0x00, 0x00, 0x00, 0x00, 0x02,
   0x00, 0x00, 0x00, 0x00, 0x54, 0x69, 0xac, 0x0a, 0x50, 0x05, 0x6a, 0x00,
   0x00, 0x80, 0x2a, 0x50, 0x05, 0x0a, 0x00, 0x00, 0x00, 0x00, 0x00, 0x00,
   0x02, 0x00, 0x00, 0x00, 0x00, 0x3c, 0x02, 0x1d, 0x50, 0x05, 0xaa, 0x10,
   0x06, 0x00, 0x20, 0x51, 0x05, 0xaa, 0x02, 0x00, 0x00, 0x00, 0x00, 0x00,
   0x00, 0x00, 0x20, 0x00, 0x00, 0x00, 0xba, 0x4a, 0x55, 0x01, 0xaa, 0x00,
   0x65, 0x06, 0x00, 0x40, 0x85, 0xa0, 0x04, 0x05, 0x00, 0x00, 0x00, 0x00,
   0x00, 0x00, 0x02, 0x20, 0x00, 0x00, 0x00, 0x9e, 0x75, 0x09, 0xaa, 0x40,
   0x15, 0xa0, 0x02, 0x00, 0x00, 0xaa, 0x40, 0x75, 0x0a, 0x00, 0x00, 0xa0,
   0x00, 0x00, 0x00, 0x02, 0x00, 0x00, 0x00, 0x00, 0x54, 0x2b, 0xaa, 0x40,
   0x15, 0xa0, 0x0a, 0x01, 0x00, 0x00, 0x04, 0x70, 0xaa, 0x00, 0x00, 0x00,
   0x08, 0x00, 0x00, 0x00, 0x04, 0x20, 0x00, 0x00, 0x00, 0x8b, 0x2a, 0x51,
   0x15, 0xa0, 0x0a, 0x54, 0x29, 0x00, 0x00, 0x04, 0xa0, 0x52, 0x01, 0x00,
   0x00, 0x04, 0x00, 0x00, 0x00, 0x04, 0x20, 0x00, 0x00, 0x00, 0x0a, 0xd4,
   0x1d, 0xa8, 0x02, 0x54, 0x01, 0x2a, 0x00, 0x00, 0x18, 0x1e, 0x14, 0xa9,
   0x02, 0x40, 0x01, 0x00, 0x00, 0x00, 0x02, 0x00, 0x00, 0x00, 0x00, 0x05,
   0xb0, 0xaa, 0x02, 0x54, 0x81, 0x2a, 0x40, 0x00, 0x00, 0x48, 0x50, 0x29,
   0xaa, 0x14, 0x30, 0x00, 0x00, 0x00, 0x00, 0x00, 0x00, 0x00, 0x00, 0x00,
   0x05, 0x80, 0x06, 0x55, 0x81, 0x2a, 0x40, 0x15, 0x00, 0x00, 0x54, 0x01,
   0x7a, 0x40, 0xb1, 0x28, 0x00, 0x00, 0x00, 0x00, 0x00, 0x20, 0x00, 0x00,
   0x00, 0x08, 0x12, 0x55, 0x80, 0x2a, 0x50, 0x15, 0x28, 0x00, 0x00, 0x83,
   0x2a, 0x40, 0x80, 0x88, 0x0a, 0x00, 0x00, 0x00, 0x00, 0x02, 0x40, 0x00,
   0x00, 0x00, 0x00, 0x54, 0x88, 0x2a, 0x50, 0x05, 0xa8, 0x02, 0x00, 0x00,
   0x2a, 0x40, 0x15, 0x00, 0x00, 0x14, 0x00, 0x00, 0x00, 0x00, 0x02, 0x00,
   0x01, 0x00, 0x00, 0x05, 0xa8, 0x0a, 0x50, 0x05, 0xa8, 0x02, 0x55, 0x00,
   0x68, 0x50, 0x15, 0xa8, 0x00, 0x00, 0x00, 0x00, 0x00, 0x00, 0x00, 0x00,
   0x00, 0x22, 0x00, 0x80, 0x02, 0x48, 0x55, 0x05, 0xaa, 0x00, 0x55, 0x20,
   0x00, 0x55, 0x05, 0xa8, 0x02, 0x00, 0x00, 0x00, 0x00, 0x20, 0x00, 0x00,
   0x02, 0x00, 0x54, 0x05, 0x00, 0x03, 0x54, 0x05, 0xaa, 0x00, 0x55, 0xa0,
   0x0a, 0x01, 0x05, 0xa8, 0x02, 0x55, 0x08, 0x00, 0x00, 0x00, 0x50, 0x00,
   0x00, 0x02, 0x00, 0x80, 0x0a, 0x40, 0x01, 0x08, 0xaa, 0x00, 0x55, 0xa0,
   0x0a, 0xd0, 0x81, 0xaa, 0x00, 0x55, 0x80, 0x2a, 0x00, 0x00, 0x00, 0xc9,
   0x01, 0x00, 0x00, 0x00, 0x00, 0x50, 0x50, 0x01, 0xae, 0x40, 0x15, 0xa0,
   0x0a, 0x50, 0x25, 0x80, 0x00, 0x55, 0xa0, 0x0a, 0x50, 0x00, 0x00, 0x00,
   0x8b, 0x01, 0x00, 0x00, 0x00, 0x00, 0x00, 0x0b, 0x02, 0x44, 0x15, 0xa0,
   0x0a, 0x54, 0x01, 0x2a, 0x40, 0x55, 0xa0, 0x0a, 0x50, 0x85, 0x00, 0x00,
   0x00, 0x66, 0x00, 0x00, 0x02, 0x00, 0x00, 0x00, 0x00, 0x05, 0x16, 0xa0,
   0x0a, 0x54, 0x01, 0xaa, 0xc0, 0x10, 0xa0, 0x0a, 0x50, 0x05, 0xaa, 0x00,
   0x00, 0x00, 0x40, 0x00, 0x00, 0x02, 0x00, 0x00, 0x00, 0x00, 0x85, 0xaa,
   0x02, 0x54, 0x01, 0xaa, 0x40, 0x15, 0xa2, 0x0a, 0x54, 0x01, 0xaa, 0x00,
   0x01, 0x00, 0x00, 0x20, 0x00, 0x00, 0x04, 0x00, 0x00, 0x00, 0x80, 0x82,
   0x03, 0x54, 0x81, 0x2a, 0x40, 0x15, 0xa0, 0x0a, 0x54, 0x01, 0xaa, 0x40,
   0x15, 0x28, 0x00, 0x00, 0xc0, 0x00, 0x00, 0x00, 0x00, 0x00, 0x20, 0xa0,
   0x02, 0x55, 0x81, 0x2a, 0x40, 0x15, 0xa8, 0x02, 0x54, 0x01, 0xaa, 0x40,
   0x15, 0xa0, 0x4a, 0x00, 0x00, 0x00, 0x01, 0x00, 0x08, 0x00, 0x00, 0x20,
   0x50, 0x01, 0x80, 0x2a, 0x50, 0x15, 0xa8, 0x02, 0x54, 0x81, 0x2a, 0x40,
   0x15, 0xa0, 0x0a, 0x54, 0x00, 0x00, 0xc0, 0x02, 0x00, 0x00, 0x00, 0x00,
   0x40, 0x75, 0x00, 0x2a, 0x50, 0x05, 0xa8, 0x02, 0x55, 0x81, 0x2a, 0x40,
   0x15, 0xa8, 0x02, 0x54, 0x81, 0x02, 0x00, 0xe0, 0x0e, 0x50, 0x0d, 0xaa,
   0x00, 0xf5, 0xab, 0x0a, 0x41, 0x05, 0xa0, 0x02, 0x54, 0x00, 0x2a, 0x00,
   0x15, 0xa0, 0x02, 0x50, 0x01, 0x2a, 0x40, 0x15 };
